src/welcome/images/headphones.svg

<svg width="24" height="24" viewBox="0 0 24 24" fill="none" xmlns="http://www.w3.org/2000/svg">
<path d="M3 18V12C3 9.61305 3.94821 7.32387 5.63604 5.63604C7.32387 3.94821 9.61305 3 12 3C14.3869 3 16.6761 3.94821 18.364 5.63604C20.0518 7.32387 21 9.61305 21 12V18" stroke="#F00069" stroke-width="2" stroke-linecap="round" stroke-linejoin="round"/>
<path d="M21 19C21 19.5304 20.7893 20.0391 20.4142 20.4142C20.0391 20.7893 19.5304 21 19 21H18C17.4696 21 16.9609 20.7893 16.5858 20.4142C16.2107 20.0391 16 19.5304 16 19V16C16 15.4696 16.2107 14.9609 16.5858 14.5858C16.9609 14.2107 17.4696 14 18 14H21V19ZM3 19C3 19.5304 3.21071 20.0391 3.58579 20.4142C3.96086 20.7893 4.46957 21 5 21H6C6.53043 21 7.03914 20.7893 7.41421 20.4142C7.78929 20.0391 8 19.5304 8 19V16C8 15.4696 7.78929 14.9609 7.41421 14.5858C7.03914 14.2107 6.53043 14 6 14H3V19Z" stroke="#F00069" stroke-width="2" stroke-linecap="round" stroke-linejoin="round"/>
</svg>

<svg xmlns="http://www.w3.org/2000/svg" width="24" height="24" fill="none" stroke="#f00069" stroke-width="2" stroke-linejoin="round" xmlns:v="https://vecta.io/nano"><path d="M3 18v-6a9 9 0 0 1 9-9 9 9 0 0 1 9 9v6" stroke-linecap="round"/><path d="M21 19a2 2 0 0 1-2 2h-1a2 2 0 0 1-2-2v-3a2 2 0 0 1 2-2h3v5zM3 19a2 2 0 0 0 2 2h1a2 2 0 0 0 2-2v-3a2 2 0 0 0-2-2H3v5z"/></svg>
